X:1
T:Title
%%score ( 1 2 ) ( 3 4 )
L:1/8
Q:1/4=90
M:4/4
K:Bb
V:1 treble nm="Grand Piano, Soprano"
V:2 treble 
V:3 bass nm="Choir Pad, Ringing, Sweetly Ringing"
V:4 bass 
V:1
 [DF][DF][DF][DF] [EG][DF] z [DF] | [DB][DB][Fd][Ec] [DB]2 z2 | [DF][DF][DF][DF] [EG][DF] z [DB] | %3
w: By~Theodore~Edson~Perkins * * * * * *|||
 [CA][FA][=EB][EG] F2 z [DF] | [DF]2 [EG][EA] [DB]2 [CA][DB] | [Ec]2 [DB][Ec] [Fd]2 z [DF] | %6
w: |||
 z2 .G2 z4 | [Ec]2 [DB][Ec] [Fd]2 z2 | [Fd]2 [Fd][Ec] [DB]2 [DB][FA] | [EG]2 [EG][EA] [DB]2 z2 | %10
w: ||||
 [Ac]2 [Ac][Ac] [Ac]2 [Ac][GB] | [FA]<[FA] [GB]2 [Ac]2 z F | [DB]2 [Fd][Ec] [DB][EG][DF][DF] | %13
w: |||
 [DB]2 [Fd][Ec] [DB][EG] [DF]2 | [DB]2 [DB]2 [Fd][DB] z2 | [EG][GB] z2 [DF][B,D] z2 | %16
w: |||
 [DF]2 [DB]>[Fd] [Fc]2 z2 | [DB]2 [DB]2 [Fd][DB] z2 | [EG][GB] z2 [DF][B,D] z2 | %19
w: |||
 [DF]2 [DB]>[Ec] [DB]4- | [DB]4 z4 |] %21
w: ||
V:2
 x8 | x8 | x8 | x8 | x8 | x8 | [DF]2 E-[EA] [DB]2 [CA][DB] | x8 | x8 | x8 | x8 | x8 | x8 | x8 | %14
 x8 | x8 | x8 | x8 | x8 | x8 | x8 |] %21
V:3
 [B,,B,][B,,B,][B,,B,][B,,B,] [B,,B,][B,,B,] z [B,,B,] | [B,,F,][B,,F,]F,[F,A,] [B,,B,]2 z2 | %2
 [B,,B,][B,,B,][B,,B,][B,,B,] [B,,B,][B,,B,] z [B,,F,] | %3
 [C,F,][C,F,][C,G,][C,B,] [F,A,]2 z [B,,B,] | [B,,B,]2 [B,,B,][B,,F,] [B,,F,]2 [B,,F,][B,,F,] | %5
 [F,A,]2 B,A, B,2 z [B,,B,] | [B,,B,]2 [B,,B,][B,,F,] [B,,F,]2 [B,,F,][B,,F,] | %7
 [F,A,]2 B,A, B,2 z2 | [B,,B,]2 [B,,B,][B,,B,] [B,,B,]2 [B,,B,]2 | %9
 [E,B,]2 [E,B,][C,F,] [B,,F,]2 z2 | [F,C]2 [F,C][F,C] [F,C]2 [F,C]2 | %11
 [F,C]<[F,C] [C,C]2 [F,C]2 z F, | [B,,F,]2 [B,,F,][B,,F,] [B,,B,][B,,B,][B,,B,][B,,B,] | %13
 [B,,F,]2 [B,,F,][B,,F,] [B,,B,][B,,B,] [B,,B,]2 | [B,,B,]2 [B,,B,]2 [B,,B,][B,,F,] z2 | %15
 [E,B,][E,B,] z2 [B,,B,][B,,F,] z2 | [B,,B,]2 [B,,F,]>[B,,B,] [F,A,]2 z2 | %17
 [B,,B,]2 [B,,B,]2 [B,,B,][B,,F,] z2 | [E,B,][E,B,] z2 [B,,B,][B,,F,] z2 | %19
 [F,B,]2 F,>F, [B,,F,]4- | [B,,F,]4 z4 |] %21
V:4
 x8 | x8 | x8 | x8 | x8 | z2 F,2 z4 | x8 | z2 F,2 z4 | x8 | x8 | x8 | x8 | x8 | x8 | x8 | x8 | x8 | %17
 x8 | x8 | x8 | x8 |] %21

